X: 47
T: No_41_Lame_Dance_Song_(c).krn
N: Derived from No_41_Lame_Dance_Song_(c).krn
%%abc-version 2.0
%%abcx-abcm2ps-target-version 5.9.1 (29 Sep 2008)
%%abc-creator hum2abc beta
%%abcx-conversion-date 2019/03/15 08:36:49
%%humdrum-veritas 858886938
%%humdrum-veritas-data 2835231878
%%linebreak <none>
%%barnumbers 0
L: 1/8
M: 3/4
%%staves {1 2}
V: 1 clef=bass
V: 2 clef=bass
K: E
[V:1] [K:clef=bass][M:3/4]E3/F/ E3/B,/ B,/G,3/ | 
[V:2] [K:clef=bass][M:3/4]G,,2G,,2G,,2 | 
[V:1] EF/E/ F/EB,/ B,/!fermata!G,3/ | 
[V:2] G,,2G,,2G,,2 | 
[V:1] C3/B,/C2C/B,3/ ||  
[V:2] z6 ||  
[V:1] [M:2/4](3G,F,E,-E,2 ||  
[V:2] [M:2/4]z4 ||  
[V:1] [M:3/4]F,/E,3/- E,E,E,2 | 
[V:2] [M:3/4]z6 | 
[V:1] C3/B,/ C3/C/ B,3/(G,/ [I:setbarnb 7]||  
[V:2] z6 ||  
[V:1] [M:2/4](3G,)F,E, F,/E,/F, ||  
[V:2] [M:2/4]z4 ||  
[V:1] [M:3/4]C3/G,/ B,/G,/B,/G,/ (3:2:6(F,/8E,/)(F,/E,/)(F,/E,/) ||  
[V:2] [M:3/4]z6 ||  
[V:1] [M:2/4](3G,F,E, (3F,E,E, ||  
[V:2] [M:2/4]z4 ||  
[V:1] [M:3/4]E,E, E, z/ E,/E,2 | 
[V:2] [M:3/4]z6 | 
[V:1] [M:2/4](3G,F,E, F,/E,/F,/E,/ | 
[V:2] [M:2/4]z4 | 
[V:1] (3G,F,E,E,2 :|]  
[V:2] z4 :|]  



